X: 7
T:Up In The Rafters
R:jig
M:6/8
L:1/8
K:Amin
EAA EAA | ABc B2A | EAA ABA | F2F FED |
EAA EAA | ABc B2A | efe dcB | cAG A3 :|
a3 age | aba ged | cec B3 | cec BAG |
A2E ABc | BAG EFG | A2a ged | BAG A3 :|

